_FINAL_PROJECT_/static/svg/favicon.svg

<?xml version="1.0" encoding="utf-8"?>
<!-- Generator: Adobe Illustrator 20.1.0, SVG Export Plug-In . SVG Version: 6.00 Build 0)  -->
<svg version="1.1" id="Pokéball" xmlns="http://www.w3.org/2000/svg" xmlns:xlink="http://www.w3.org/1999/xlink" x="0px" y="0px"
	 viewBox="0 0 595.3 594.1" style="enable-background:new 0 0 595.3 594.1;" xml:space="preserve">
<style type="text/css">
	.st0{fill:#FFFFFF;}
	.st1{fill:#DFDFDF;}
	.st2{fill:#FF1C1C;}
	.st3{fill:#DF1818;}
</style>
<g id="Pokéball_1_">
	<g id="Colours">
		<path id="Down" class="st0" d="M297.6,380.9c-40.4,0-74.1-28.6-82.1-66.6H81.1c9.5,110.5,102.2,197.2,215.1,197.2
			s205.7-86.7,215.1-197.2H379.7C371.7,352.4,338,380.9,297.6,380.9z"/>
		<path id="Shadow_Down" class="st1" d="M345.6,505.9c89.6-21,157.7-97.7,165.7-191.6h-53C453,399.5,408.3,471.7,345.6,505.9z"/>
		<path id="Center" class="st0" d="M347.1,297L347.1,297C347,297,347,297,347.1,297c-0.1-6.1-1.2-11.9-3.2-17.3
			c-7-18.8-25.1-32.1-46.3-32.1s-39.3,13.4-46.3,32.1c-2,5.4-3.1,11.2-3.1,17.3c0,0,0,0,0,0h0.1c0,0,0,0,0,0
			c0,6.1,1.1,11.9,3.1,17.3c7,18.8,25.1,32.1,46.3,32.1c21.2,0,39.3-13.4,46.3-32.1C346,309,347.1,303.1,347.1,297
			C347.1,297,347.1,297,347.1,297z"/>
		<path id="Up" class="st2" d="M297.7,213.2c40.4,0,74.1,28.6,82.1,66.6h134.4C504.7,169.2,412,82.5,299,82.5S93.4,169.2,83.9,279.7
			h131.7C223.6,241.7,257.3,213.2,297.7,213.2z"/>
		<path id="Shadow_Up" class="st3" d="M458.3,279.7h55.8c-8.2-95.5-78.6-173.3-170.5-192.6C407.4,120.8,452.9,193.7,458.3,279.7z"/>
	</g>
	<path id="Line" d="M299,82.5c113,0,205.7,86.7,215.1,197.2H379.7c-8-38-41.7-66.6-82.1-66.6c-40.4,0-74.1,28.6-82.1,66.6H83.9
		C93.4,169.2,186.1,82.5,299,82.5z M343.9,279.7c2,5.4,3.1,11.2,3.1,17.3c0,0,0,0,0,0h0.1c0,0,0,0,0,0c0,6.1-1.1,11.9-3.1,17.3
		c-7,18.8-25.1,32.1-46.3,32.1c-21.2,0-39.3-13.4-46.3-32.1c-2-5.4-3.1-11.2-3.1-17.3c0,0,0,0,0,0h-0.1c0,0,0,0,0,0
		c0-6.1,1.1-11.9,3.1-17.3c7-18.8,25.1-32.1,46.3-32.1S336.9,261,343.9,279.7z M296.2,511.6c-113,0-205.7-86.7-215.1-197.2h134.4
		c8,38,41.7,66.6,82.1,66.6s74.1-28.6,82.1-66.6h131.7C501.9,424.8,409.2,511.6,296.2,511.6z M297.6,41.3
		C156.4,41.3,41.9,155.8,41.9,297s114.5,255.7,255.7,255.7S553.4,438.3,553.4,297S438.9,41.3,297.6,41.3z"/>
</g>
</svg>

<svg width="596" height="595" viewBox="0 0 596 595" fill="none" xmlns="http://www.w3.org/2000/svg">
<path d="M297.6 380.9C257.2 380.9 223.5 352.3 215.5 314.3H81.1C90.6 424.8 183.3 511.5 296.2 511.5C409.1 511.5 501.9 424.8 511.3 314.3H379.7C371.7 352.4 338 380.9 297.6 380.9Z" fill="white"/>
<path d="M345.6 505.9C435.2 484.9 503.3 408.2 511.3 314.3H458.3C453 399.5 408.3 471.7 345.6 505.9Z" fill="#DFDFDF"/>
<path d="M347.1 297C347 297 347 297 347.1 297C347 290.9 345.9 285.1 343.9 279.7C336.9 260.9 318.8 247.6 297.6 247.6C276.4 247.6 258.3 261 251.3 279.7C249.3 285.1 248.2 290.9 248.2 297H248.3C248.3 303.1 249.4 308.9 251.4 314.3C258.4 333.1 276.5 346.4 297.7 346.4C318.9 346.4 337 333 344 314.3C346 309 347.1 303.1 347.1 297Z" fill="white"/>
<path d="M297.7 213.2C338.1 213.2 371.8 241.8 379.8 279.8H514.2C504.7 169.2 412 82.5 299 82.5C186 82.5 93.4 169.2 83.9 279.7H215.6C223.6 241.7 257.3 213.2 297.7 213.2Z" fill="#FF1C1C"/>
<path d="M458.3 279.7H514.1C505.9 184.2 435.5 106.4 343.6 87.1C407.4 120.8 452.9 193.7 458.3 279.7Z" fill="#DF1818"/>
<path d="M299 82.5C412 82.5 504.7 169.2 514.1 279.7H379.7C371.7 241.7 338 213.1 297.6 213.1C257.2 213.1 223.5 241.7 215.5 279.7H83.9C93.4 169.2 186.1 82.5 299 82.5ZM343.9 279.7C345.9 285.1 347 290.9 347 297H347.1C347.1 303.1 346 308.9 344 314.3C337 333.1 318.9 346.4 297.7 346.4C276.5 346.4 258.4 333 251.4 314.3C249.4 308.9 248.3 303.1 248.3 297H248.2C248.2 290.9 249.3 285.1 251.3 279.7C258.3 260.9 276.4 247.6 297.6 247.6C318.8 247.6 336.9 261 343.9 279.7ZM296.2 511.6C183.2 511.6 90.5 424.9 81.1 314.4H215.5C223.5 352.4 257.2 381 297.6 381C338 381 371.7 352.4 379.7 314.4H511.4C501.9 424.8 409.2 511.6 296.2 511.6ZM297.6 41.3C156.4 41.3 41.9 155.8 41.9 297C41.9 438.2 156.4 552.7 297.6 552.7C438.8 552.7 553.4 438.3 553.4 297C553.4 155.7 438.9 41.3 297.6 41.3Z" fill="black"/>
</svg>
